X:1
T: Miss Molly Grant's Reel
C:Robert Mackintosh
R:Reel
Q: 232
K:Bm
M:4/4
L:1/8
|:f|B1/2B1/2B fd ge cf|df dB ^Ac AF|dB fd ge c^a|bf ge dB Bf|
B1/2B1/2B fd ge cf|df dB ^Ac AF|dB fd ge c^a|bf ge dB Bf|
bf db ge ca|fd Bf ec ^AF|Bd ce df eg|fd ec dB Bf|
bf db ge ca|fd Bf ec ^Ac|dB cd fd eg|fe dc dB B:|
